sands/images/license.svg

<svg width="63" height="53" viewBox="0 0 63 53" fill="none" xmlns="http://www.w3.org/2000/svg">
<path d="M61.5322 10.1478C61.032 10.1478 60.6266 10.5532 60.6266 11.0533V43.0699H37.7548L37.3826 42.4253C37.8796 41.9209 38.311 41.3524 38.6655 40.7341H53.2384C53.7386 40.7341 54.1439 40.3286 54.1439 39.8285V38.6088C54.1439 37.494 55.0509 36.5871 56.1656 36.5871H57.3853C57.8856 36.5871 58.2909 36.1816 58.2909 35.6815V10.0685C58.2909 9.56835 57.8856 9.16291 57.3853 9.16291H56.1656C55.0509 9.16291 54.1439 8.25602 54.1439 7.14122V5.92149C54.1439 5.42138 53.7386 5.01593 53.2384 5.01593H19.7547C19.2546 5.01593 18.8491 5.42138 18.8491 5.92149C18.8491 6.4216 19.2546 6.82705 19.7547 6.82705H52.3327V7.14122C52.3327 9.25455 54.052 10.974 56.1655 10.974H56.4797V34.7762H56.1655C54.052 34.7762 52.3327 36.4956 52.3327 38.609V38.9232H39.4317C39.6386 38.203 39.7517 37.4434 39.7517 36.6576C39.7517 32.123 36.0626 28.4339 31.5281 28.4339C26.9937 28.4339 23.3045 32.123 23.3045 36.6576C23.3045 37.4435 23.4176 38.203 23.6244 38.9232H10.7232V38.609C10.7232 36.4956 9.00388 34.7762 6.89043 34.7762H6.57626V10.974H6.89043C9.00376 10.974 10.7232 9.25467 10.7232 7.14122V6.82705H15.5264C16.0265 6.82705 16.432 6.4216 16.432 5.92149C16.432 5.42138 16.0265 5.01593 15.5264 5.01593H9.81768C9.31757 5.01593 8.91212 5.42138 8.91212 5.92149V7.14122C8.91212 8.2559 8.00523 9.16291 6.89043 9.16291H5.67082C5.17071 9.16291 4.76526 9.56835 4.76526 10.0685V35.6818C4.76526 36.1819 5.17071 36.5873 5.67082 36.5873H6.89055C8.00523 36.5873 8.91224 37.4942 8.91224 38.609V39.8287C8.91224 40.3288 9.31769 40.7343 9.8178 40.7343H24.3906C24.7451 41.3526 25.1766 41.9211 25.6736 42.4255L25.3015 43.07H2.4294V35.7676C2.4294 35.2675 2.02395 34.8621 1.52384 34.8621C1.02373 34.8621 0.618286 35.2675 0.618286 35.7676V43.9756C0.618286 44.4757 1.02373 44.8812 1.52384 44.8812H24.2557L22.2499 48.3551C22.1298 48.5632 22.0973 48.8103 22.1594 49.0423C22.2215 49.2742 22.3733 49.4721 22.5813 49.5921L26.8064 52.0314C26.949 52.1138 27.1048 52.1529 27.2584 52.1529C27.5713 52.1529 27.8757 51.9904 28.0434 51.7L31.528 45.6646L35.0125 51.7C35.1325 51.908 35.3304 52.0597 35.5623 52.122C35.6395 52.1426 35.7182 52.1528 35.7967 52.1528C35.9543 52.1528 36.1106 52.1116 36.2495 52.0314L40.4745 49.5921C40.9076 49.3421 41.0559 48.7882 40.8059 48.3551L38.8003 44.8812H61.5322C62.0324 44.8812 62.4378 44.4757 62.4378 43.9756V11.0533C62.4378 10.5532 62.0324 10.1478 61.5322 10.1478ZM31.528 30.245C35.0638 30.245 37.9405 33.1217 37.9405 36.6576C37.9405 40.1935 35.0638 43.07 31.528 43.07C27.9921 43.07 25.1155 40.1934 25.1155 36.6576C25.1155 33.1218 27.9921 30.245 31.528 30.245ZM26.9279 50.0102L24.2712 48.4765L27.0979 43.5804C27.9608 44.1346 28.9331 44.5321 29.9752 44.732L26.9279 50.0102ZM36.1283 50.0102L33.0809 44.7322C34.123 44.5321 35.0951 44.1346 35.9581 43.5804L38.7848 48.4765L36.1283 50.0102Z" fill="white"/>
<path d="M61.5322 0.869141H1.52384C1.02373 0.869141 0.618286 1.27459 0.618286 1.7747V31.5391C0.618286 32.0392 1.02373 32.4446 1.52384 32.4446C2.02395 32.4446 2.4294 32.0392 2.4294 31.5391V2.68026H60.6266V6.82168C60.6266 7.32179 61.032 7.72724 61.5322 7.72724C62.0324 7.72724 62.4378 7.32179 62.4378 6.82168V1.7747C62.4378 1.27459 62.0324 0.869141 61.5322 0.869141Z" fill="white"/>
<path d="M31.528 40.7344C33.776 40.7344 35.6048 38.9057 35.6048 36.6577C35.6048 34.4097 33.776 32.5809 31.528 32.5809C29.28 32.5809 27.4513 34.4097 27.4513 36.6577C27.4513 38.9057 29.28 40.7344 31.528 40.7344ZM31.528 34.392C32.7773 34.392 33.7937 35.4084 33.7937 36.6577C33.7937 37.907 32.7773 38.9233 31.528 38.9233C30.2787 38.9233 29.2624 37.907 29.2624 36.6577C29.2624 35.4084 30.2787 34.392 31.528 34.392Z" fill="white"/>
<path d="M38.8461 14.6333C39.3464 14.6333 39.7517 14.2279 39.7517 13.7278V9.82481C39.7517 9.3247 39.3464 8.91925 38.8461 8.91925H24.21C23.7099 8.91925 23.3044 9.3247 23.3044 9.82481V13.7278C23.3044 14.2279 23.7099 14.6333 24.21 14.6333H38.8461ZM25.1156 10.7304H37.9406V12.8222H25.1156V10.7304Z" fill="white"/>
<path d="M13.5469 21.5337C13.5469 22.0338 13.9524 22.4392 14.4525 22.4392H48.6036C49.1039 22.4392 49.5092 22.0338 49.5092 21.5337C49.5092 21.0336 49.1039 20.6281 48.6036 20.6281H14.4525C13.9524 20.6281 13.5469 21.0336 13.5469 21.5337Z" fill="white"/>
<path d="M18.4257 17.6307C18.4257 18.1308 18.8312 18.5363 19.3313 18.5363H43.725C44.2252 18.5363 44.6305 18.1308 44.6305 17.6307C44.6305 17.1306 44.2252 16.7252 43.725 16.7252H19.3313C18.8312 16.7252 18.4257 17.1306 18.4257 17.6307Z" fill="white"/>
<path d="M48.6036 24.5311H14.4525C13.9524 24.5311 13.5469 24.9366 13.5469 25.4367C13.5469 25.9368 13.9524 26.3422 14.4525 26.3422H48.6036C49.1039 26.3422 49.5092 25.9368 49.5092 25.4367C49.5092 24.9366 49.1038 24.5311 48.6036 24.5311Z" fill="white"/>
<path d="M18.6843 32.1446C19.2151 32.3578 19.814 32.2289 20.2099 31.8158L20.5142 31.4984C20.5915 31.92 20.9609 32.2395 21.4047 32.2395C21.9049 32.2395 22.3103 31.834 22.3103 31.3339V30.4746C22.3103 29.9025 21.9673 29.3951 21.4365 29.1817C20.9057 28.9686 20.307 29.0973 19.9109 29.5105L19.6216 29.8123V29.5846C19.6216 29.019 19.284 28.5137 18.7614 28.2972C18.2388 28.0808 17.6427 28.1992 17.2429 28.5993L13.8123 32.0299C13.4586 32.3835 13.4586 32.9569 13.8123 33.3105C13.9891 33.4873 14.2209 33.5757 14.4526 33.5757C14.6843 33.5757 14.9161 33.4873 15.0929 33.3105L17.8104 30.5929V30.8517C17.8105 31.4238 18.1535 31.9312 18.6843 32.1446Z" fill="white"/>
<path d="M45.8832 32.1445C46.4138 32.3577 47.0127 32.2287 47.4086 31.8158L47.713 31.4982C47.7904 31.9198 48.1598 32.2393 48.6037 32.2393C49.1039 32.2393 49.5093 31.8339 49.5093 31.3338V30.4745C49.5093 29.9024 49.1663 29.3949 48.6355 29.1816C48.1047 28.9682 47.5059 29.0973 47.1099 29.5102L46.8206 29.8121V29.5845C46.8206 29.0188 46.4829 28.5135 45.9605 28.2971C45.438 28.0805 44.8418 28.1993 44.4418 28.5992L41.0113 32.0298C40.6576 32.3835 40.6576 32.9569 41.0113 33.3104C41.1882 33.4872 41.42 33.5757 41.6517 33.5757C41.8834 33.5757 42.1152 33.4873 42.2921 33.3104L45.0096 30.5929V30.8516C45.0093 31.4237 45.3523 31.9312 45.8832 32.1445Z" fill="white"/>
</svg>

<svg width="63" height="53" fill="none" xmlns="http://www.w3.org/2000/svg"><path d="M61.532 10.148c-.5 0-.905.405-.905.905V43.07H37.755l-.372-.645a8.27 8.27 0 001.282-1.69h14.573c.5 0 .906-.406.906-.907v-1.22c0-1.114.907-2.02 2.022-2.02h1.22c.5 0 .905-.406.905-.907V10.07c0-.5-.405-.906-.906-.906h-1.22a2.024 2.024 0 01-2.021-2.022v-1.22c0-.5-.405-.905-.906-.905H19.755a.906.906 0 000 1.811h32.578v.314a3.837 3.837 0 003.833 3.833h.314v23.802h-.314a3.837 3.837 0 00-3.833 3.833v.314H39.432c.207-.72.32-1.48.32-2.265 0-4.535-3.69-8.224-8.224-8.224-4.534 0-8.223 3.689-8.223 8.224 0 .785.113 1.545.32 2.265H10.722v-.314a3.837 3.837 0 00-3.833-3.833h-.314V10.974h.314a3.837 3.837 0 003.833-3.833v-.314h4.803a.906.906 0 000-1.811H9.818c-.5 0-.906.405-.906.905v1.22A2.024 2.024 0 016.89 9.163H5.67c-.5 0-.905.405-.905.905v25.614c0 .5.406.905.906.905h1.22c1.114 0 2.021.907 2.021 2.022v1.22c0 .5.406.905.906.905H24.39a8.27 8.27 0 001.283 1.691l-.372.645H2.428v-7.302a.906.906 0 00-1.81 0v8.208c0 .5.405.905.905.905h22.732l-2.006 3.474a.906.906 0 00.331 1.237l4.225 2.44a.905.905 0 001.237-.331l3.485-6.036 3.485 6.035a.906.906 0 001.236.331l4.225-2.439a.906.906 0 00.332-1.237L38.8 44.881h22.732c.5 0 .906-.405.906-.905V11.053c0-.5-.406-.905-.906-.905zM31.528 30.245a6.42 6.42 0 016.413 6.413 6.42 6.42 0 01-6.413 6.412 6.42 6.42 0 01-6.412-6.412 6.42 6.42 0 016.412-6.413zm-4.6 19.765l-2.657-1.533 2.827-4.897a8.168 8.168 0 002.877 1.152l-3.047 5.278zm9.2 0l-3.047-5.278a8.173 8.173 0 002.877-1.152l2.827 4.897-2.657 1.533z" fill="#fff"/><path d="M61.532.87H1.524c-.5 0-.906.405-.906.905v29.764a.906.906 0 001.811 0V2.68h58.198v4.142a.906.906 0 101.81 0V1.775c0-.5-.405-.906-.905-.906zM31.528 40.734a4.081 4.081 0 004.077-4.076 4.081 4.081 0 00-4.077-4.077 4.081 4.081 0 00-4.077 4.077 4.081 4.081 0 004.077 4.076zm0-6.342a2.268 2.268 0 012.266 2.266 2.268 2.268 0 01-2.266 2.265 2.268 2.268 0 01-2.266-2.265 2.268 2.268 0 012.266-2.266z" fill="#fff"/><path d="M38.846 14.633c.5 0 .906-.405.906-.905V9.825c0-.5-.406-.906-.906-.906H24.21c-.5 0-.906.406-.906.906v3.903c0 .5.406.905.906.905h14.636zm-13.73-3.903H37.94v2.092H25.116V10.73zM13.547 21.534c0 .5.405.905.905.905h34.152a.905.905 0 100-1.81H14.453c-.5 0-.906.405-.906.905zm4.879-3.904c0 .5.405.906.905.906h24.394a.906.906 0 000-1.81H19.331c-.5 0-.905.405-.905.905zm30.178 6.901H14.453a.906.906 0 000 1.811h34.15a.905.905 0 100-1.81zm-29.92 7.614c.531.213 1.13.084 1.526-.33l.304-.317a.906.906 0 001.796-.164v-.86c0-.572-.343-1.079-.873-1.292a1.387 1.387 0 00-1.526.329l-.29.301v-.227a1.39 1.39 0 00-.86-1.288 1.389 1.389 0 00-1.518.302l-3.43 3.43a.905.905 0 101.28 1.281l2.717-2.717v.259c0 .572.344 1.08.874 1.293zm27.199 0c.53.213 1.13.084 1.526-.33l.304-.317a.906.906 0 001.796-.164v-.86c0-.572-.343-1.08-.873-1.292a1.387 1.387 0 00-1.526.328l-.29.302v-.228a1.39 1.39 0 00-.86-1.287 1.39 1.39 0 00-1.518.302l-3.43 3.43a.905.905 0 101.28 1.281l2.718-2.717v.259c0 .572.342 1.08.873 1.293z" fill="#fff"/></svg>
